img/block-white.svg

<svg xmlns="http://www.w3.org/2000/svg" style="isolation:isolate" viewBox="0 0 397 417" width="397" height="417"><defs><clipPath id="a"><path d="M0 0h397v417H0z"/></clipPath></defs><g clip-path="url(#a)" fill="#FCFAFA"><path d="M267.646 142.982l39.616-22.946L267.583 97.2l-39.616 22.946 39.679 22.836zm-69.328 40.129l39.616-22.945-39.679-22.836-39.616 22.946 39.679 22.835zm-69.439-40.13l39.616-22.945L128.816 97.2 89.2 120.146l39.679 22.835zm69.328-39.98l39.616-22.945-39.679-22.836-39.616 22.946 39.679 22.835z"/><path d="M19.856 137.591l168.638 97.051.206 148.789L20.063 286.38l-.207-148.789zM198.112 22.89l168.637 97.052-168.367 97.519L29.744 120.41l168.368-97.52zm178.573 114.206l.207 148.789-168.368 97.519-.206-148.789 168.367-97.519zM198.08 0L0 114.728l.255 183.125 198.397 114.178 198.08-114.728-.255-183.125L198.08 0z"/></g></svg>

<?xml version="1.0" standalone="no"?><!-- Generator: Gravit.io --><svg xmlns="http://www.w3.org/2000/svg" xmlns:xlink="http://www.w3.org/1999/xlink" style="isolation:isolate" viewBox="0 0 397 417" width="397" height="417"><defs><clipPath id="_clipPath_0Bq6nQdHybnRXiAaYmuaAIlY1kUgIiIA"><rect width="397" height="417"/></clipPath></defs><g clip-path="url(#_clipPath_0Bq6nQdHybnRXiAaYmuaAIlY1kUgIiIA)"><path d=" M 267.646 142.982 L 307.262 120.036 L 267.583 97.2 L 227.967 120.146 L 267.646 142.982 Z " fill="rgb(252,250,250)"/><path d=" M 198.318 183.111 L 237.934 160.166 L 198.255 137.33 L 158.639 160.276 L 198.318 183.111 Z " fill="rgb(252,250,250)"/><path d=" M 128.879 142.981 L 168.495 120.036 L 128.816 97.2 L 89.2 120.146 L 128.879 142.981 Z " fill="rgb(252,250,250)"/><path d=" M 198.207 103.001 L 237.823 80.056 L 198.144 57.22 L 158.528 80.166 L 198.207 103.001 Z " fill="rgb(252,250,250)"/><path d=" M 19.856 137.591 L 188.494 234.642 L 188.7 383.431 L 20.063 286.38 L 19.856 137.591 Z  M 198.112 22.89 L 366.749 119.942 L 198.382 217.461 L 29.744 120.41 L 198.112 22.89 Z  M 376.685 137.096 L 376.892 285.885 L 208.524 383.404 L 208.318 234.615 L 376.685 137.096 Z  M 198.08 0 L 0 114.728 L 0.255 297.853 L 198.652 412.031 L 396.732 297.303 L 396.477 114.178 L 198.08 0 Z " fill="rgb(252,250,250)"/></g></svg>
